!!!ONB: MCCC : IJH0401_02 : Extracted Monophonic Melody
!!!COM: Haydn, Joseph
!!!OPR: String Quartet in A major
!!!OMV: 2
!!!SCT: Hob.III:36 ; Op.20 No.6
!!!ODT: 1772///
**kern
*thru
*k[f#c#g#d#]
*E:
*clefF
*M4/4
2.b
4dd#
=1
8ee
8b
2b
4dd#
=2
16ee
16dd#
16ff#
16ee
16gg#
16ff#
16ee
16dd#
16cc#
16b
16a
16g#
16f#
16e
16d#
16e
=3
4cc#
4b
2r
=4
3..a[
24a]
8a
8cc#
8a
=5
3..g#[
24g#]
8g#
8ee
8g#
=6
4.f#
16g#
16a
4c#
4d#
=7
4e
2.r
=8
2.b
4dd#
=9
8ee
8b
2b
4dd#
=10
2ee
2dd#
=11
2cc#
4.a
16g#
16a
=12
8g#
16a
16b
16cc#
16dd#
16ee
16dd#
16ff#
16ee
16gg#
16ff#
16ee
16g#
16a
16a#
=13
8.b
32a
32g#
8f#
3..r
24r
=14
2.ff#
4ff##
=15
2.gg#
4b
=16
4a#
4ff#
4ee#
4b
=17
4a#
4ff#
4ee#
4b
=18
4a#
4cc#
4ee
4ee
=19
6..ee
24aa#
24ccc#
24eee
24ccc#
24aa#
8ee
4.r
=20
2fff#
4.A
16B
16A
=21
4G#
6..gg#[
48gg#]
16ff##
16gg#
16ff##
16gg#
16ff##
16gg#
16aa#
=22
16bb
16ff##
16gg#
16aa#
16bb
16dd#
16ee
16ff#
16gg#
16b#
16cc#
16dd#
16ee
16b#
16cc#
16e#
=23
2f#
2cc#
=24
2b[
16b]
16ff##
16gg#
16ee
16dd#
16cc#
16b
16a#
=25
2b[
16b]
16f##
16g#
16e
16d#
16c#
16B
16A#
=26
2A#
4B
4r
=27
2.b
4dd#
=28
8ee
8b
4.b
16aa
16gg#
16aa
16ff#
16ee
16dd#
=29
16ee
16G#
16B
16e
16g#
16b
16ee
16gg#
16bb
16gg#
16ff#
16ee
32dd#
32ee
32dd#
32ee
32dd#
32ee
32dd#
32ee
=30
4cc#
4b
2r
=31
3..a[
24a]
16ff#
16dd#
16aa
16ff#
16dd#
16a
=32
8a
8g#
6..g#[
48g#]
32a
32b
32cc#
32dd#
32ee
32ff#
16gg#
16ee
16b
16g#
=33
8f#
16g#
16a
8a
16b
16cc#
8cc#
16c#
16a
8a
16.f#
32d#
=34
4d#
8e
3..r
24r
=35
2.b
4dd#
=36
8ee
8b
6..b
24dd#
24ff#
24aa
24gg#
24ff#
24ccc#
24bb
24aa
24ff#
24ee
24dd#
=37
2ee
2ddd
=38
2ccc#
2aa
=39
16gg#
16bb
16aa
16gg#
16aa
16bb
16ccc#
16ddd#
16ee
16b
16gg#
16ee
8.bb
16g#
=40
4g#
4f#
2r
=41
2ff#[
16ff#]
16dd#
16ee
16cc#
16b
16bb
16b
16aa
=42
8ff##
8gg#
6..gg#[
48gg#]
16ee
16eee
16eee
16eee
16ddd#
16ccc#
16bb
=43
4aa#
4ff#
4ee#
4b
=44
4a#
4ff#
8ee#
8ddd
8ccc#
8bb
=45
16aa#
16bb
16ccc#
16aa#
8ee
8ee
12..ee[
96ee]
32ff#
32gg#
32ff#
8ee
8ee
=46
2.eee
4ee
=47
2fff#
4.A
16B
16A
=48
4G#
6..gg#
24aa#
24ff##
24gg#
24aa#
24ff##
24gg#
24aa#
24ff##
24gg#
24bb
24aa#
=49
24bb
24dd#
24ee
24ff#
24gg#
24aa#
24bb
24b
24cc#
24dd#
24ee
24ff#
24gg#
24g#
24a#
24b
24cc#
24dd#
24ee
24dd#
24cc#
24b
24a#
24g#
=50
16f#
16b
16dd#
16ff#
16bb
16ddd#
16fff#
16r
2cc#
=51
2.ff#
4aa#
=52
8bb
8ff#
2ff#
4aa#
=53
3..bb[
24bb]
8aa
8gg#
8ff#
=54
1ee#
=55
1ff#
=56
1gg
=57
2gg#[
4gg#]
16ff#
16ee
16dd#
16cc#
=58
16cc#
16b#
16ee
16dd#
2.dd#
=59
2.gg#
8cc#
8bb
=60
8aa
16gg#
16ff#
2ff#
8b
8aa
=61
8gg#
16ff#
16ee
2ee
4dd
=62
4cc#
2ccc#
4ee
=63
8dd#
16cc#
16b
4b
2r
=64
2.b
4b#
=65
2.cc#
4cc##
=66
1dd#
=67
1ee
=68
4dd#
4bb
4aa#
4ee
=69
4dd#
4bb
4aa#
4ee
=70
4dd#
4ff#
4aa
4aa
=71
4.aa
16bb
16ccc#
4bb
4aa
=72
1gg[
=73
2gg]
4ff#
4ee
=74
3..bb[
24bb]
8ccc#
8ddd#
8eee
=75
2b
2ff#
=76
2ee[
16ee]
16bb#
16ccc#
16aa
16gg#
16ff#
16ee
16dd#
=77
2ee[
16ee]
16b#
16cc#
16a
16g#
16f#
16e
16d#
=78
2d#
4e
4r
==
*-
